dist/svg/star-half.svg

<!-- Generated by Trend Micro Style Portal -->
<svg version="1.1" xmlns="http://www.w3.org/2000/svg" width="16" height="16" viewBox="0 0 16 16">
  <title>star-half</title>
  <path fill="rgb(34,34,34)" d="M16 6.122l-5.519-0.842-2.481-5.28-2.481 5.28-5.519 0.842 3.993 4.088-0.945 5.79 4.952-2.735 4.953 2.735-0.945-5.79zM8.483 12.39l-0.483-0.267v-9.771l1.803 3.837 4.121 0.629-2.984 3.056 0.695 4.257z"></path>
</svg>

<svg width="16" height="16" viewBox="0 0 16 16" fill="rgb(34, 34, 34)" xmlns="http://www.w3.org/2000/svg"><title>star-half</title><path d="M16 6.122L10.481 5.28L8 0L5.519 5.28L0 6.122L3.993 10.21L3.048 16L8 13.265L12.953 16L12.008 10.21L16 6.122ZM8.483 12.39L8 12.123V2.352L9.803 6.189L13.924 6.818L10.94 9.874L11.635 14.131L8.483 12.39Z" fill="rgb(34, 34, 34)" fill-opacity="1.00"/></svg>
